public/logos/ET.svg

<?xml version="1.0" encoding="UTF-8"?>
<svg xmlns="http://www.w3.org/2000/svg" xmlns:xlink="http://www.w3.org/1999/xlink" width="141.4pt" height="59pt" viewBox="0 0 141.4 59" version="1.1">
<defs>
<clipPath id="clip1">
  <path d="M 105 0 L 141.398438 0 L 141.398438 28 L 105 28 Z M 105 0 "/>
</clipPath>
</defs>
<g id="surface1">
<path style=" stroke:none;fill-rule:nonzero;fill:rgb(77.980042%,21.046448%,27.253723%);fill-opacity:1;" d="M 107.980469 28.828125 C 115.597656 29.542969 118.46875 29.597656 121.964844 29.5625 C 125.308594 29.457031 127.824219 29.933594 130.652344 26.941406 C 133.613281 23.871094 133.261719 22.28125 131.480469 22.777344 C 128.832031 23.566406 119.164062 26.859375 107.765625 28.445312 C 107.253906 28.515625 107.382812 28.785156 107.980469 28.828125 "/>
<path style=" stroke:none;fill-rule:nonzero;fill:rgb(97.180176%,77.416992%,8.239746%);fill-opacity:1;" d="M 105.398438 28.003906 C 113.191406 26.011719 132.695312 15.535156 135.589844 13.671875 C 137.011719 12.78125 138.589844 13.316406 136.070312 17.417969 C 134.355469 19.945312 133.136719 21.296875 128.597656 22.796875 C 123.078125 24.621094 117.226562 26.203125 105.597656 28.371094 C 104.996094 28.484375 104.796875 28.203125 105.398438 28.003906 "/>
<g clip-path="url(#clip1)" clip-rule="nonzero">
<path style=" stroke:none;fill-rule:nonzero;fill:rgb(39.997864%,62.483215%,39.456177%);fill-opacity:1;" d="M 106.179688 27.449219 C 112.972656 25.070312 127.777344 17.277344 132.824219 14.179688 C 136.449219 11.96875 139.257812 10.339844 140.359375 7.566406 C 140.945312 5.988281 141.269531 4.644531 141.398438 3.542969 L 141.398438 1.652344 C 141.242188 0.632812 140.792969 0.0742188 140.191406 0 L 139.921875 0 C 139.542969 0.0429688 139.121094 0.253906 138.679688 0.640625 C 135.835938 3.40625 122.453125 17.445312 105.328125 27.316406 C 105.070312 27.464844 105.027344 27.800781 106.179688 27.449219 "/>
</g>
<path style=" stroke:none;fill-rule:nonzero;fill:rgb(77.980042%,21.046448%,27.253723%);fill-opacity:1;" d="M 0 42.308594 L 1.699219 41.097656 L 1.699219 26.539062 L 0 25.328125 L 13.097656 25.328125 L 13.097656 28.238281 L 10.914062 26.539062 L 4.125 26.539062 L 4.125 32.601562 L 8.976562 32.601562 L 10.914062 31.148438 L 10.914062 35.273438 L 8.976562 33.820312 L 4.125 33.820312 L 4.125 41.097656 L 11.160156 41.097656 L 13.582031 39.15625 L 13.585938 42.308594 L 0 42.308594 "/>
<path style=" stroke:none;fill-rule:nonzero;fill:rgb(77.980042%,21.046448%,27.253723%);fill-opacity:1;" d="M 21.835938 40.609375 L 22.5625 41.097656 C 22.226562 41.773438 20.976562 42.660156 19.378906 42.664062 C 17.667969 42.664062 16.5 41.5625 16.496094 40.125 L 16.496094 31.148438 L 14.070312 31.148438 L 18.921875 27.75 L 18.921875 30.179688 L 22.5625 30.179688 L 22.5625 31.148438 L 18.921875 31.148438 L 18.921875 41.339844 C 18.921875 41.339844 19.191406 41.621094 19.785156 41.621094 C 21.195312 41.621094 21.683594 40.78125 21.835938 40.609375 "/>
<path style=" stroke:none;fill-rule:nonzero;fill:rgb(77.980042%,21.046448%,27.253723%);fill-opacity:1;" d="M 23.289062 42.308594 L 24.988281 41.097656 L 24.988281 27.269531 L 23.289062 26.050781 L 27.414062 24.84375 L 27.414062 32.601562 L 28.792969 31.5 C 30.570312 30.175781 32.195312 29.9375 33.238281 29.9375 C 35.953125 29.9375 36.875 31.210938 36.875 32.847656 L 36.875 41.097656 L 38.574219 42.308594 L 34.449219 42.308594 L 34.449219 32.847656 C 34.449219 32.3125 33.988281 31.390625 32.507812 31.390625 C 31.617188 31.390625 30.316406 31.640625 28.976562 32.710938 L 27.414062 33.816406 L 27.414062 41.097656 L 29.109375 42.308594 L 23.289062 42.308594 "/>
<path style=" stroke:none;fill-rule:nonzero;fill:rgb(77.980042%,21.046448%,27.253723%);fill-opacity:1;" d="M 52.402344 29.9375 C 56.746094 29.933594 59.675781 32.976562 59.679688 36.242188 C 59.679688 39.511719 56.746094 42.546875 52.402344 42.550781 C 48.097656 42.554688 45.125 39.511719 45.125 36.242188 C 45.121094 32.976562 48.097656 29.9375 52.402344 29.9375 Z M 56.769531 36.242188 C 56.769531 33.707031 55.632812 30.90625 52.402344 30.90625 C 49.210938 30.910156 48.035156 33.707031 48.035156 36.242188 C 48.039062 38.777344 49.210938 41.582031 52.402344 41.582031 C 55.632812 41.578125 56.773438 38.777344 56.769531 36.242188 "/>
<path style=" stroke:none;fill-rule:nonzero;fill:rgb(77.980042%,21.046448%,27.253723%);fill-opacity:1;" d="M 60.164062 47.160156 L 61.863281 45.945312 L 61.863281 32.601562 L 60.164062 31.390625 L 64.289062 30.179688 L 64.289062 31.636719 C 65.425781 30.164062 67.699219 29.9375 69.144531 29.9375 C 72.707031 29.933594 74.964844 33.089844 74.964844 36.242188 C 74.964844 39.171875 72.707031 42.550781 69.144531 42.550781 C 67.695312 42.554688 65.554688 42.261719 64.289062 40.855469 L 64.289062 45.945312 L 65.746094 47.160156 Z M 64.289062 33.089844 L 64.289062 39.398438 C 65.074219 40.71875 66.539062 41.339844 68.175781 41.339844 C 71.253906 41.335938 72.058594 38.496094 72.054688 36.242188 C 72.054688 33.988281 71.253906 31.144531 68.175781 31.148438 C 66.539062 31.148438 65.070312 31.738281 64.289062 33.089844 "/>
<path style=" stroke:none;fill-rule:nonzero;fill:rgb(77.980042%,21.046448%,27.253723%);fill-opacity:1;" d="M 83.941406 33.574219 L 83.941406 30.90625 C 85.054688 30.285156 87.234375 29.9375 88.796875 29.9375 C 92.148438 29.9375 93.890625 30.976562 93.890625 32.847656 L 93.890625 41.097656 L 95.589844 42.308594 L 91.464844 42.308594 L 91.464844 40.367188 L 86.851562 42.308594 C 86.449219 42.476562 85.808594 42.550781 85.398438 42.550781 C 83.6875 42.554688 82.246094 41.339844 82.242188 39.398438 C 82.242188 37.03125 84.949219 35.03125 88.070312 35.03125 L 91.464844 35.03125 L 91.464844 32.847656 C 91.460938 31.71875 90.277344 30.90625 88.796875 30.90625 C 87.976562 30.90625 87.351562 31.066406 86.792969 31.492188 Z M 84.914062 39.15625 C 84.914062 40.675781 85.871094 41.097656 86.609375 41.097656 C 86.945312 41.097656 87.695312 40.78125 88.070312 40.609375 L 91.464844 39.15625 L 91.464844 36.003906 L 88.796875 36.003906 C 86.453125 36.003906 84.910156 37.210938 84.914062 39.15625 "/>
<path style=" stroke:none;fill-rule:nonzero;fill:rgb(77.980042%,21.046448%,27.253723%);fill-opacity:1;" d="M 105.78125 29.9375 C 109.183594 29.9375 109.902344 31.730469 109.902344 32.847656 L 109.902344 41.097656 L 111.601562 42.308594 L 107.480469 42.308594 L 107.480469 32.847656 C 107.480469 32.25 107.007812 31.390625 105.054688 31.390625 C 104.195312 31.390625 102.972656 31.363281 101.410156 32.601562 L 99.957031 33.816406 L 99.957031 41.097656 L 101.652344 42.308594 L 95.832031 42.308594 L 97.53125 41.097656 L 97.53125 32.601562 L 95.832031 31.390625 L 99.957031 30.179688 L 99.957031 32.601562 L 101.167969 31.574219 C 103.171875 30.046875 104.886719 29.9375 105.78125 29.9375 "/>
<path style=" stroke:none;fill-rule:nonzero;fill:rgb(77.980042%,21.046448%,27.253723%);fill-opacity:1;" d="M 39.058594 42.308594 L 40.757812 41.097656 L 40.757812 32.601562 L 39.058594 31.390625 L 43.183594 30.179688 L 43.183594 41.097656 L 44.882812 42.308594 L 39.058594 42.308594 "/>
<path style=" stroke:none;fill-rule:nonzero;fill:rgb(77.980042%,21.046448%,27.253723%);fill-opacity:1;" d="M 40.515625 27.75 C 40.515625 27.214844 41.113281 26.78125 41.847656 26.78125 C 42.585938 26.78125 43.183594 27.214844 43.183594 27.75 C 43.183594 28.289062 42.585938 28.722656 41.847656 28.722656 C 41.113281 28.722656 40.515625 28.289062 40.515625 27.75 "/>
<path style=" stroke:none;fill-rule:nonzero;fill:rgb(77.980042%,21.046448%,27.253723%);fill-opacity:1;" d="M 75.695312 42.308594 L 77.390625 41.097656 L 77.390625 32.601562 L 75.695312 31.390625 L 79.816406 30.179688 L 79.816406 41.097656 L 81.519531 42.308594 L 75.695312 42.308594 "/>
<path style=" stroke:none;fill-rule:nonzero;fill:rgb(77.980042%,21.046448%,27.253723%);fill-opacity:1;" d="M 77.152344 27.75 C 77.152344 27.214844 77.746094 26.78125 78.484375 26.78125 C 79.222656 26.78125 79.816406 27.214844 79.816406 27.75 C 79.816406 28.289062 79.222656 28.722656 78.484375 28.722656 C 77.746094 28.722656 77.152344 28.289062 77.152344 27.75 "/>
<path style=" stroke:none;fill-rule:nonzero;fill:rgb(77.980042%,21.046448%,27.253723%);fill-opacity:1;" d="M 51.703125 51.40625 C 51.71875 50.210938 52.675781 49.578125 54.140625 49.570312 C 55.550781 49.558594 56.621094 49.882812 56.601562 51.292969 L 56.601562 51.808594 C 56.59375 52.582031 56.292969 53.210938 55.191406 53.316406 C 53.753906 53.429688 53.320312 53.4375 52.195312 53.335938 C 51.59375 53.214844 51.691406 52.210938 51.703125 51.867188 Z M 52.425781 55.519531 L 53.722656 56.519531 C 53.917969 56.648438 54.15625 56.804688 54.152344 57.207031 L 54.152344 58.28125 L 53.148438 58.996094 L 56.578125 58.996094 L 55.578125 58.28125 L 55.578125 57.140625 C 55.578125 56.566406 55.507812 56.144531 54.96875 55.742188 L 53.539062 54.597656 C 53.019531 54.230469 53.023438 54.175781 52.726562 53.972656 C 52.726562 53.972656 53.886719 54.042969 54.433594 54.023438 C 56.632812 54.066406 57.640625 53.53125 57.945312 52.894531 C 58.113281 52.535156 58.1875 52.058594 58.15625 51.378906 C 58.117188 50.671875 58.066406 50.585938 57.886719 50.253906 C 57.378906 49.328125 55.851562 48.996094 54.140625 48.996094 C 52.566406 48.996094 50.863281 49.523438 50.351562 50.710938 C 50.238281 50.960938 50.164062 51.25 50.140625 51.53125 C 50.148438 52.34375 49.949219 53.570312 50.976562 54.367188 L 52.425781 55.519531 "/>
<path style=" stroke:none;fill-rule:nonzero;fill:rgb(77.980042%,21.046448%,27.253723%);fill-opacity:1;" d="M 73.578125 53.996094 L 73.578125 58.28125 L 72.578125 58.996094 L 76.007812 58.996094 L 75.007812 58.28125 L 75.007812 53.996094 L 77.578125 53.996094 L 77.578125 55.570312 L 80.003906 55.570312 L 79.007812 54.855469 L 79.007812 53.425781 L 75.007812 53.425781 L 75.007812 51.140625 C 75.007812 50.570312 74.71875 50.425781 74.292969 50.425781 L 73.578125 50.425781 L 73.578125 48.996094 L 71.148438 49.710938 L 72.152344 50.425781 L 72.152344 51 L 73.578125 51 L 73.578125 53.425781 L 69.582031 53.425781 L 69.582031 54.855469 L 68.582031 55.570312 L 71.007812 55.570312 L 71.007812 53.996094 L 73.578125 53.996094 "/>
<path style=" stroke:none;fill-rule:nonzero;fill:rgb(77.980042%,21.046448%,27.253723%);fill-opacity:1;" d="M 91.433594 53.996094 L 90.429688 53.28125 L 90.429688 51.855469 L 88.449219 51.855469 C 88.453125 51.707031 88.449219 51.550781 88.441406 51.378906 C 88.410156 50.671875 88.355469 50.585938 88.171875 50.253906 C 87.664062 49.328125 86.140625 48.996094 84.425781 48.996094 C 82.855469 48.996094 81.15625 49.523438 80.644531 50.710938 C 80.53125 50.960938 80.453125 51.25 80.425781 51.53125 C 80.441406 52.34375 80.238281 53.570312 81.265625 54.367188 L 82.710938 55.519531 L 84.011719 56.519531 C 84.207031 56.648438 84.445312 56.804688 84.4375 57.207031 L 84.4375 58.28125 L 83.4375 58.996094 L 86.867188 58.996094 L 85.867188 58.28125 L 85.867188 57.140625 C 85.867188 56.566406 85.792969 56.144531 85.257812 55.742188 L 83.828125 54.597656 C 83.308594 54.230469 83.308594 54.175781 83.015625 53.972656 C 83.015625 53.972656 84.175781 54.042969 84.722656 54.023438 C 86.917969 54.066406 87.929688 53.53125 88.230469 52.894531 C 88.292969 52.757812 88.347656 52.605469 88.382812 52.425781 L 89.003906 52.425781 L 89.003906 53.996094 Z M 86.894531 51.808594 C 86.878906 52.582031 86.582031 53.210938 85.480469 53.316406 C 84.042969 53.429688 83.605469 53.4375 82.480469 53.335938 C 81.882812 53.214844 81.976562 52.210938 81.992188 51.867188 L 81.992188 51.40625 C 82.007812 50.210938 82.964844 49.578125 84.425781 49.570312 C 85.839844 49.558594 86.914062 49.882812 86.894531 51.292969 L 86.894531 51.808594 "/>
<path style=" stroke:none;fill-rule:nonzero;fill:rgb(77.980042%,21.046448%,27.253723%);fill-opacity:1;" d="M 106.175781 53.972656 C 106.175781 53.972656 107.332031 54.042969 107.882812 54.023438 C 110.082031 54.066406 111.089844 53.53125 111.390625 52.894531 C 111.558594 52.535156 111.632812 52.058594 111.601562 51.378906 C 111.566406 50.671875 111.515625 50.585938 111.332031 50.253906 C 110.828125 49.328125 109.300781 48.996094 107.585938 48.996094 C 106.011719 48.996094 104.3125 49.523438 103.800781 50.710938 C 103.6875 50.960938 103.609375 51.25 103.585938 51.53125 C 103.597656 52.34375 103.394531 53.570312 104.425781 54.367188 L 107.574219 56.890625 L 103.003906 57.285156 L 103.003906 58.285156 L 102.003906 59 L 105.429688 59 L 104.433594 58.285156 L 104.433594 57.71875 L 109.574219 57.285156 L 109.574219 56.714844 Z M 105.148438 51.40625 C 105.164062 50.210938 106.125 49.578125 107.585938 49.570312 C 109 49.558594 110.070312 49.882812 110.050781 51.292969 L 110.050781 51.808594 C 110.039062 52.582031 109.738281 53.210938 108.640625 53.316406 C 107.199219 53.429688 106.765625 53.4375 105.640625 53.335938 C 105.039062 53.214844 105.136719 52.210938 105.148438 51.867188 L 105.148438 51.40625 "/>
<path style=" stroke:none;fill-rule:nonzero;fill:rgb(77.980042%,21.046448%,27.253723%);fill-opacity:1;" d="M 70.007812 58.996094 L 69.007812 58.28125 L 69.007812 56.996094 L 68.292969 56.996094 L 67.007812 57.855469 L 67.007812 54.957031 C 66.964844 53.273438 64.894531 53.148438 62.585938 53.4375 L 64.4375 50.996094 L 64.4375 50.425781 L 62.296875 50.425781 L 62.296875 48.996094 L 59.863281 49.710938 L 60.867188 50.425781 L 60.867188 51 L 62.835938 51 L 60.648438 53.863281 C 60.316406 54.316406 60.011719 54.859375 60.011719 55.570312 L 60.035156 58.449219 L 58.988281 58.996094 L 62.4375 58.996094 L 61.441406 58.28125 C 61.441406 55.703125 61.441406 55.882812 61.441406 55.570312 C 61.441406 54.96875 61.664062 54.691406 61.738281 54.578125 C 61.859375 54.417969 61.929688 54.3125 61.976562 54.246094 C 62.0625 54.128906 62.203125 54.101562 62.203125 54.101562 C 62.570312 54 65.578125 53.59375 65.578125 55.066406 L 65.578125 58.140625 C 65.578125 58.714844 65.863281 58.996094 66.152344 58.996094 C 66.292969 58.996094 66.4375 58.996094 66.722656 58.851562 C 67.007812 58.714844 67.578125 58.28125 67.578125 58.28125 L 67.578125 58.996094 L 70.007812 58.996094 "/>
<path style=" stroke:none;fill-rule:nonzero;fill:rgb(77.980042%,21.046448%,27.253723%);fill-opacity:1;" d="M 99.71875 56.609375 C 99.71875 54.984375 98.546875 54.734375 97.5625 54.632812 C 97.699219 54.585938 98.042969 54.453125 98.164062 54.40625 C 99.453125 53.933594 99.777344 53.386719 99.804688 52.457031 C 99.804688 52.445312 99.804688 52.433594 99.804688 52.425781 L 100.375 52.425781 L 100.375 53.996094 L 102.804688 53.996094 L 101.804688 53.28125 L 101.804688 51.855469 L 99.730469 51.855469 C 99.523438 51.132812 98.792969 50.464844 96.71875 50.425781 L 96.71875 48.996094 L 94.289062 49.710938 L 95.289062 50.425781 C 93.824219 50.425781 92.296875 51.050781 92.230469 52.433594 C 92.171875 53.757812 93.144531 54.394531 94.453125 54.433594 L 92.988281 54.945312 C 92.222656 55.238281 91.71875 55.570312 91.71875 56.855469 L 91.71875 58.28125 L 90.71875 58.996094 L 94.144531 58.996094 L 93.144531 58.28125 L 93.144531 56.980469 C 93.144531 56.574219 93.070312 56.257812 93.71875 56.035156 C 93.71875 56.035156 96.058594 55.207031 96.164062 55.171875 C 97.316406 55.257812 98.289062 55.324219 98.289062 56.597656 L 98.289062 58.28125 L 97.289062 58.996094 L 100.71875 58.996094 L 99.71875 58.28125 Z M 95.839844 53.953125 C 94.238281 53.917969 93.753906 53.667969 93.753906 52.398438 C 93.753906 51.148438 95.234375 50.984375 96.03125 50.96875 C 97.976562 50.933594 98.332031 51.554688 98.308594 52.21875 C 98.296875 52.648438 98.3125 53.066406 97.355469 53.417969 C 97.171875 53.488281 96.457031 53.742188 95.839844 53.953125 "/>
</g>
</svg>

<svg xmlns="http://www.w3.org/2000/svg" width="141.4pt" height="59pt" viewBox="0 0 141.4 59"><defs><clipPath id="a"><path d="M105 0h36.398v28H105Zm0 0"/></clipPath></defs><path d="M107.98 28.828c7.618.715 10.489.77 13.985.735 3.344-.106 5.86.37 8.687-2.622 2.961-3.07 2.61-4.66.828-4.164-2.648.79-12.316 4.082-23.714 5.668-.512.07-.383.34.214.383" style="stroke:none;fill-rule:nonzero;fill:#c73645;fill-opacity:1"/><path d="M105.398 28.004c7.793-1.992 27.297-12.469 30.192-14.332 1.422-.89 3-.356.48 3.746-1.715 2.527-2.933 3.879-7.472 5.379-5.52 1.824-11.371 3.406-23 5.574-.602.113-.801-.168-.2-.367" style="stroke:none;fill-rule:nonzero;fill:#f8c515;fill-opacity:1"/><g clip-path="url(#a)"><path d="M106.18 27.45c6.793-2.38 21.597-10.173 26.644-13.27 3.625-2.211 6.434-3.84 7.535-6.614.586-1.578.91-2.921 1.04-4.023v-1.89C141.241.632 140.792.073 140.19 0h-.27c-.378.043-.8.254-1.241.64-2.844 2.766-16.227 16.805-33.352 26.676-.258.149-.3.485.852.133" style="stroke:none;fill-rule:nonzero;fill:#669f65;fill-opacity:1"/></g><path d="m0 42.309 1.7-1.211V26.539L0 25.33h13.098v2.91l-2.184-1.7H4.125v6.063h4.852l1.937-1.454v4.125L8.977 33.82H4.125v7.278h7.035l2.422-1.942.004 3.153zM21.836 40.61l.727.488c-.336.675-1.586 1.562-3.184 1.566-1.711 0-2.879-1.102-2.883-2.539v-8.977H14.07l4.852-3.398v2.43h3.64v.968h-3.64V41.34s.27.281.863.281c1.41 0 1.899-.84 2.05-1.012M23.29 42.309l1.698-1.211V27.27l-1.699-1.22 4.125-1.206v7.758l1.379-1.102c1.777-1.324 3.402-1.562 4.445-1.562 2.715 0 3.637 1.273 3.637 2.91v8.25l1.7 1.21h-4.126v-9.46c0-.535-.46-1.457-1.941-1.457-.89 0-2.192.25-3.531 1.32l-1.563 1.105v7.282l1.695 1.21zM52.402 29.938c4.344-.004 7.274 3.039 7.278 6.304 0 3.27-2.934 6.305-7.278 6.309-4.304.004-7.277-3.04-7.277-6.309-.004-3.265 2.973-6.304 7.277-6.304m4.368 6.304c0-2.535-1.137-5.336-4.368-5.336-3.191.004-4.367 2.801-4.367 5.336.004 2.535 1.176 5.34 4.367 5.34 3.23-.004 4.371-2.805 4.368-5.34M60.164 47.16l1.7-1.215V32.602l-1.7-1.211 4.125-1.211v1.457c1.137-1.473 3.41-1.7 4.856-1.7 3.562-.003 5.82 3.153 5.82 6.305 0 2.93-2.258 6.309-5.82 6.309-1.45.004-3.59-.29-4.856-1.696v5.09l1.457 1.215Zm4.125-14.07v6.308c.785 1.32 2.25 1.942 3.887 1.942 3.078-.004 3.883-2.844 3.879-5.098 0-2.254-.801-5.097-3.88-5.094-1.636 0-3.105.59-3.886 1.942M83.941 33.574v-2.668c1.114-.62 3.293-.968 4.856-.968 3.351 0 5.094 1.039 5.094 2.91v8.25l1.699 1.21h-4.125v-1.94l-4.613 1.94c-.403.169-1.043.243-1.454.243-1.71.004-3.152-1.211-3.156-3.153 0-2.367 2.707-4.367 5.828-4.367h3.395v-2.183c-.004-1.13-1.188-1.942-2.668-1.942-.82 0-1.445.16-2.004.586Zm.973 5.582c0 1.52.957 1.942 1.695 1.942.336 0 1.086-.317 1.461-.489l3.395-1.453v-3.152h-2.668c-2.344 0-3.887 1.207-3.883 3.152M105.781 29.938c3.403 0 4.121 1.792 4.121 2.91v8.25l1.7 1.21h-4.122v-9.46c0-.598-.472-1.457-2.425-1.457-.86 0-2.082-.028-3.645 1.21l-1.453 1.215v7.282l1.695 1.21h-5.82l1.7-1.21v-8.496l-1.7-1.211 4.125-1.211v2.422l1.211-1.028c2.004-1.527 3.719-1.637 4.613-1.637M39.059 42.309l1.699-1.211v-8.496l-1.7-1.211 4.126-1.211v10.918l1.699 1.21zM40.516 27.75c0-.535.597-.969 1.332-.969.738 0 1.336.434 1.336.969 0 .54-.598.973-1.336.973-.735 0-1.332-.434-1.332-.973M75.695 42.309l1.696-1.211v-8.496l-1.696-1.211 4.121-1.211v10.918l1.704 1.21zM77.152 27.75c0-.535.594-.969 1.332-.969s1.332.434 1.332.969c0 .54-.593.973-1.332.973-.738 0-1.332-.434-1.332-.973M51.703 51.406c.016-1.195.973-1.828 2.438-1.836 1.41-.011 2.48.313 2.46 1.723v.516c-.007.773-.308 1.402-1.41 1.507-1.437.114-1.87.121-2.996.02-.601-.121-.504-1.125-.492-1.469Zm.723 4.114 1.297 1c.195.128.433.285.43.687v1.074l-1.005.715h3.43l-1-.715v-1.14c0-.575-.07-.996-.61-1.399l-1.429-1.144c-.52-.368-.516-.422-.812-.625 0 0 1.16.07 1.707.05 2.199.043 3.207-.492 3.511-1.128.168-.36.242-.836.211-1.516-.039-.707-.09-.793-.27-1.125-.507-.926-2.034-1.258-3.745-1.258-1.575 0-3.278.527-3.79 1.715a2.5 2.5 0 0 0-.21.82c.007.813-.192 2.04.836 2.836zM73.578 53.996v4.285l-1 .715h3.43l-1-.715v-4.285h2.57v1.574h2.426l-.996-.715v-1.43h-4v-2.284c0-.57-.29-.715-.715-.715h-.715v-1.43l-2.43.715 1.004.715V51h1.426v2.426h-3.996v1.43l-1 .714h2.426v-1.574zM91.434 53.996l-1.004-.715v-1.426h-1.98c.003-.148 0-.304-.009-.476-.03-.707-.086-.793-.27-1.125-.507-.926-2.03-1.258-3.745-1.258-1.57 0-3.27.527-3.781 1.715-.114.25-.192.539-.22.82.016.813-.187 2.04.84 2.836l1.446 1.153 1.3 1c.196.128.434.285.427.687v1.074l-1 .715h3.43l-1-.715v-1.14c0-.575-.075-.996-.61-1.399l-1.43-1.144c-.52-.368-.52-.422-.812-.625 0 0 1.16.07 1.707.05 2.195.043 3.207-.492 3.507-1.128.063-.137.118-.29.153-.47h.62v1.571Zm-4.54-2.187c-.015.773-.312 1.402-1.414 1.507-1.437.114-1.875.121-3 .02-.597-.121-.503-1.125-.488-1.469v-.46c.016-1.196.973-1.829 2.434-1.837 1.414-.011 2.488.313 2.469 1.723zM106.176 53.973s1.156.07 1.707.05c2.199.043 3.207-.492 3.508-1.128.168-.36.242-.836.21-1.516-.035-.707-.085-.793-.269-1.125-.504-.926-2.031-1.258-3.746-1.258-1.574 0-3.273.527-3.785 1.715-.114.25-.192.539-.215.82.012.813-.191 2.04.84 2.836l3.148 2.524-4.57.394v1l-1 .715h3.426l-.996-.715v-.566l5.14-.434v-.57Zm-1.028-2.567c.016-1.195.977-1.828 2.438-1.836 1.414-.011 2.484.313 2.465 1.723v.516c-.012.773-.313 1.402-1.41 1.507-1.442.114-1.875.121-3 .02-.602-.121-.504-1.125-.493-1.469zM70.008 58.996l-1-.715v-1.285h-.715l-1.285.86v-2.899c-.043-1.684-2.113-1.809-4.422-1.52l1.852-2.44v-.571h-2.141v-1.43l-2.434.715 1.004.715V51h1.969l-2.188 2.863c-.332.453-.636.996-.636 1.707l.023 2.88-1.047.546h3.45l-.997-.715v-2.71c0-.602.223-.88.297-.993.121-.16.192-.266.239-.332.086-.117.226-.144.226-.144.367-.102 3.375-.508 3.375.964v3.075c0 .574.285.855.574.855.141 0 .285 0 .57-.144.286-.137.856-.57.856-.57v.714zM99.719 56.61c0-1.626-1.172-1.876-2.156-1.977.136-.047.48-.18.601-.227 1.29-.472 1.613-1.02 1.64-1.949v-.031h.571v1.57h2.43l-1-.715v-1.426H99.73c-.207-.722-.937-1.39-3.011-1.43v-1.429l-2.43.715 1 .715c-1.465 0-2.992.625-3.059 2.008-.058 1.324.915 1.96 2.223 2l-1.465.511c-.765.293-1.27.625-1.27 1.91v1.426l-1 .715h3.427l-1-.715v-1.3c0-.407-.075-.723.574-.946 0 0 2.34-.828 2.445-.863 1.152.086 2.125.152 2.125 1.426v1.683l-1 .715h3.43l-1-.715Zm-3.88-2.657c-1.6-.035-2.085-.285-2.085-1.555 0-1.25 1.48-1.414 2.277-1.43 1.946-.034 2.301.587 2.278 1.25-.012.43.004.848-.954 1.2-.183.07-.898.324-1.515.535" style="stroke:none;fill-rule:nonzero;fill:#c73645;fill-opacity:1"/></svg>
